symbols/web/brightness_3/materialsymbolsrounded/brightness_3_wght500_48px.svg

<svg xmlns="http://www.w3.org/2000/svg" height="48" width="48"><path d="M24.4 39.3q4.7-1.8 7.575-6.05t2.875-9.3q0-5.1-2.9-9.325T24.3 8.55q2.4 3.25 3.6 7.1 1.2 3.85 1.2 8.3 0 4.5-1.175 8.35-1.175 3.85-3.525 7Zm13.9-15.35q0 4.05-1.525 7.675T32.65 38q-2.6 2.75-6.075 4.425Q23.1 44.1 19.1 44.25q-.75.05-1.275-.425-.525-.475-.525-1.275 0-.45.2-.8.2-.35.5-.55 3.95-3 5.825-7.725T25.7 23.95q0-4.85-1.875-9.55Q21.95 9.7 18 6.7q-.3-.2-.5-.55-.2-.35-.2-.8 0-.8.525-1.275.525-.475 1.275-.425 4 .15 7.475 1.825Q30.05 7.15 32.65 9.9t4.125 6.375Q38.3 19.9 38.3 23.95Zm-9.2 0Z"/></svg>

<svg xmlns="http://www.w3.org/2000/svg" height="48" width="48"><path d="M24.4 39.3Q29.1 37.5 31.975 33.25Q34.85 29 34.85 23.95Q34.85 18.85 31.95 14.625Q29.05 10.4 24.3 8.55Q26.7 11.8 27.9 15.65Q29.1 19.5 29.1 23.95Q29.1 28.45 27.925 32.3Q26.75 36.15 24.4 39.3ZM38.3 23.95Q38.3 28 36.775 31.625Q35.25 35.25 32.65 38Q30.05 40.75 26.575 42.425Q23.1 44.1 19.1 44.25Q18.35 44.3 17.825 43.825Q17.3 43.35 17.3 42.55Q17.3 42.1 17.5 41.75Q17.7 41.4 18 41.2Q21.95 38.2 23.825 33.475Q25.7 28.75 25.7 23.95Q25.7 19.1 23.825 14.4Q21.95 9.7 18 6.7Q17.7 6.5 17.5 6.15Q17.3 5.8 17.3 5.35Q17.3 4.55 17.825 4.075Q18.35 3.6 19.1 3.65Q23.1 3.8 26.575 5.475Q30.05 7.15 32.65 9.9Q35.25 12.65 36.775 16.275Q38.3 19.9 38.3 23.95ZM29.1 23.95Q29.1 23.95 29.1 23.95Q29.1 23.95 29.1 23.95Q29.1 23.95 29.1 23.95Q29.1 23.95 29.1 23.95Q29.1 23.95 29.1 23.95Q29.1 23.95 29.1 23.95Q29.1 23.95 29.1 23.95Q29.1 23.95 29.1 23.95Z"/></svg>
